src/topics/icons/tumblr-icon.svg

<svg height="446" preserveAspectRatio="xMidYMid" viewBox="0 0 256 446" width="256" xmlns="http://www.w3.org/2000/svg"><path d="m234.575538 355.79965c-8.279661 3.950135-24.124836 7.386976-35.952924 7.699416-35.640485.959637-42.558801-25.03984-42.871241-43.920147v-138.656438h89.447128v-67.420103h-89.112371v-113.460378h-65.2553393c-1.0712231 0-2.9458635.9373202-3.1913521 3.32525499-3.8162323 34.72548161-20.0854328 95.67361171-87.6394386 120.02162001v57.533606h45.0806381v145.552437c0 49.811873 36.7563421 120.601865 133.7912999 118.950396 32.716938-.557928 69.071572-14.282974 77.128062-26.088745z" fill="#303d4d"/></svg>

<?xml version="1.0" encoding="UTF-8" standalone="no"?>
<svg width="256px" height="446px" viewBox="0 0 256 446" version="1.1" xmlns="http://www.w3.org/2000/svg" xmlns:xlink="http://www.w3.org/1999/xlink" preserveAspectRatio="xMidYMid">
    <g>
        <path d="M234.575538,355.79965 C226.295877,359.749785 210.450702,363.186626 198.622614,363.499066 C162.982129,364.458703 156.063813,338.459226 155.751373,319.578919 L155.751373,180.922481 L245.198501,180.922481 L245.198501,113.502378 L156.08613,113.502378 L156.08613,0.042 L90.8307907,0.042 C89.7595676,0.042 87.8849272,0.979320199 87.6394386,3.36725499 C83.8232063,38.0927366 67.5540058,99.0408667 0,123.388875 L0,180.922481 L45.0806381,180.922481 L45.0806381,326.474918 C45.0806381,376.286791 81.8369802,447.076783 178.871938,445.425314 C211.588876,444.867386 247.94351,431.14234 256,419.336569 L234.575538,355.79965" fill="#303D4D"></path>
    </g>
</svg>
